X: 20700
T: Johnny Allen's
R: reel
M: 4/4
K: Dmixolydian
|:A3B AGFG|AccB c2Bc|A3B AGFE|DGGF G2FG|
A3B AGFG|Adde f3g|afge fde^c|dcAF G2FG:|
|:A3g fde^c|Add^c dAFG|A3g fde^c|dcAF G2FG|
A3g fde^c|Add^c defg|afge fde^c|dcAF G2FG:|

